icons/bruno.svg

<svg width="16" height="16" viewBox="0 0 16 16" fill="none" xmlns="http://www.w3.org/2000/svg">
<path d="M10.8483 3.44265L11.9027 3.8527L13.6015 5.84435L14.6559 8.3632L14.1873 9.59334C13.8931 10.4816 13.3618 11.2765 12.4885 11.9365L11.9027 11.1554C11.9027 11.1554 11.0072 12.9619 9.38661 13.2548C9.38661 13.2548 6.98219 13.7084 5.73253 13.0494C4.93111 12.6268 4.69765 12.0146 4.69765 12.0146L3.89707 11.214L3.52609 11.7607L3.03794 11.7412L1.76874 10.0424L1.3587 8.77325L1.39776 7.71885L1.94448 6.43013L3.07698 4.69231C3.07698 4.69231 3.70182 3.54026 4.99054 3.77458C4.99054 3.77458 6.51357 2.64208 7.76322 2.81781C9.01288 2.99354 8.83717 2.52492 10.8483 3.44265Z" fill="#F4AA41"/>
<path d="M7.91943 11.0968L8.64189 11.6631H9.22767L9.24721 12.5613L9.07148 13.3814L8.81762 13.8305L8.15375 14.1819L7.07982 14.0453L6.70881 13.6352L6.4745 12.6394L6.53308 11.7022L7.0017 11.7607L7.91943 11.0968Z" fill="#EA5A47"/>
<path d="M9.01474 7.20214C9.01474 7.20214 9.62462 7.6219 9.94332 7.4278C10.2621 7.2337 10.3631 6.81792 10.169 6.49921C9.97488 6.1805 9.55914 6.07945 9.2404 6.27355C8.92166 6.46765 9.01474 7.20214 9.01474 7.20214Z" fill="#49371F"/>
<path d="M8.87422 11.7754C8.85848 11.5828 9.00189 11.4138 9.19455 11.3981C9.38721 11.3823 9.55615 11.5257 9.5719 11.7184L8.87422 11.7754ZM8.51844 14.0754L8.41569 13.7408L8.4157 13.7408L8.51844 14.0754ZM7.08218 13.9399L6.8544 14.2056L6.8544 14.2056L7.08218 13.9399ZM9.22306 11.7469C9.5719 11.7184 9.5719 11.7185 9.57191 11.7186C9.57191 11.7186 9.57192 11.7187 9.57193 11.7188C9.57194 11.719 9.57196 11.7192 9.57197 11.7194C9.57201 11.7198 9.57206 11.7204 9.57211 11.7211C9.57222 11.7225 9.57237 11.7244 9.57254 11.7267C9.5729 11.7315 9.57338 11.7382 9.57395 11.7466C9.57509 11.7635 9.57658 11.7877 9.57814 11.8181C9.58124 11.879 9.58458 11.9652 9.58571 12.0692C9.58796 12.2761 9.58154 12.5585 9.54555 12.8531C9.51002 13.1439 9.44332 13.4674 9.3144 13.7456C9.18613 14.0224 8.97267 14.302 8.62118 14.41L8.4157 13.7408C8.50072 13.7147 8.59359 13.6362 8.67928 13.4513C8.76432 13.2678 8.81921 13.026 8.85072 12.7682C8.88175 12.5142 8.8878 12.2647 8.88575 12.0769C8.88474 11.9835 8.88174 11.9067 8.87904 11.8538C8.8777 11.8274 8.87643 11.807 8.87553 11.7936C8.87508 11.7869 8.87472 11.782 8.87449 11.7789C8.87437 11.7774 8.87429 11.7763 8.87425 11.7757C8.87422 11.7754 8.87421 11.7753 8.87421 11.7752C8.8742 11.7752 8.8742 11.7752 8.87421 11.7752C8.87421 11.7752 8.87421 11.7753 8.87421 11.7753C8.87422 11.7754 8.87422 11.7754 9.22306 11.7469ZM8.62118 14.41C8.25837 14.5214 7.90123 14.5356 7.60073 14.4946C7.31255 14.4553 7.03311 14.3588 6.8544 14.2056L7.30996 13.6742C7.34514 13.7043 7.47384 13.7708 7.69532 13.801C7.90449 13.8295 8.15853 13.8198 8.41569 13.7408L8.62118 14.41ZM6.8544 14.2056C6.7565 14.1217 6.66881 13.9966 6.59575 13.8593C6.51936 13.7158 6.44728 13.5369 6.39051 13.327C6.27669 12.9061 6.22217 12.3525 6.32401 11.6935L7.0158 11.8004C6.92887 12.3629 6.97797 12.8179 7.06623 13.1442C7.1105 13.3079 7.16407 13.4372 7.21369 13.5305C7.2385 13.5771 7.26128 13.6127 7.27996 13.6381C7.29961 13.6649 7.31052 13.6746 7.30996 13.6742L6.8544 14.2056Z" fill="#49371F"/>
<path d="M6.61707 7.19069C6.61707 7.19069 6.01403 7.60578 5.69884 7.41384C5.38365 7.2219 5.28375 6.81076 5.47569 6.4956C5.66763 6.18042 6.07874 6.08052 6.39393 6.27246C6.70912 6.4644 6.61707 7.19069 6.61707 7.19069Z" fill="#49371F"/>
<path d="M10.3505 10.0628C10.4618 10.9069 9.87494 11.4637 9.34659 11.6659C8.69763 11.9142 8.15461 11.5687 7.87075 11.1172C7.65272 11.5522 7.16729 11.9224 6.39491 11.6659C5.91448 11.4102 5.27966 10.9069 5.39096 10.0628" stroke="#49371F" stroke-width="0.7" stroke-linecap="round"/>
<path d="M11.6799 6.66951C12.2227 7.87849 11.7991 9.7214 11.6521 10.2723C11.6235 10.3794 11.6344 10.4915 11.6818 10.5917L12.1475 11.5743C12.2935 11.8823 12.7083 11.9383 12.928 11.6776C13.6759 10.7902 14.9333 9.00881 14.4624 7.76787C12.8076 3.40723 10.7444 3.51677 10.7444 3.51677C10.0777 3.0637 7.67395 1.89123 4.93055 3.72179C4.93055 3.72179 2.9079 3.31936 1.43052 7.69045C1.00791 8.94079 2.23414 10.7053 2.9654 11.5904C3.18359 11.8545 3.60184 11.7998 3.74854 11.4903L4.2111 10.5142C4.25857 10.4141 4.26947 10.302 4.24088 10.1949C4.09385 9.64401 3.67019 7.8011 4.213 6.59209" stroke="#49371F" stroke-width="0.7" stroke-linecap="round"/>
<path d="M5.59545 12.337C5.75696 12.4432 5.80181 12.6602 5.69561 12.8217C5.58942 12.9832 5.3724 13.0281 5.21088 12.9219L5.59545 12.337ZM4.02262 10.9119C4.34084 10.7661 4.34081 10.7661 4.34078 10.766C4.34078 10.766 4.34075 10.766 4.34074 10.7659C4.34072 10.7659 4.3407 10.7658 4.34069 10.7658C4.34068 10.7658 4.34069 10.7658 4.34074 10.7659C4.34083 10.7661 4.34105 10.7666 4.34139 10.7673C4.34208 10.7688 4.34328 10.7714 4.34496 10.7749C4.34834 10.782 4.35369 10.7932 4.36096 10.8079C4.37552 10.8374 4.39773 10.8812 4.42716 10.9361C4.48616 11.0459 4.57349 11.1985 4.68569 11.3674C4.91419 11.7113 5.22815 12.0955 5.59545 12.337L5.21088 12.9219C4.72827 12.6046 4.35196 12.13 4.10266 11.7548C3.97596 11.5641 3.87751 11.3921 3.81046 11.2672C3.77687 11.2047 3.75098 11.1536 3.7332 11.1176C3.7243 11.0996 3.71742 11.0853 3.71261 11.0751C3.7102 11.0701 3.70831 11.066 3.70694 11.0631C3.70625 11.0616 3.7057 11.0604 3.70528 11.0595C3.70506 11.059 3.70489 11.0586 3.70474 11.0583C3.70467 11.0582 3.7046 11.058 3.70454 11.0579C3.70452 11.0578 3.70448 11.0578 3.70447 11.0577C3.70443 11.0577 3.7044 11.0576 4.02262 10.9119Z" fill="#49371F"/>
<path d="M11.8004 11.0305C11.8004 11.0305 11.2522 12.1137 10.3777 12.632" stroke="#49371F" stroke-width="0.7" stroke-linecap="round"/>
<path d="M7.52075 10.7535C7.52075 10.5602 7.67745 10.4035 7.87075 10.4035C8.06405 10.4035 8.22075 10.5602 8.22075 10.7535H7.52075ZM7.52075 11.1172V10.7535H8.22075V11.1172H7.52075Z" fill="#49371F"/>
<path d="M8.59686 8.32855C8.84769 8.32855 9.07214 8.48419 9.16026 8.71884L9.54078 9.73257L8.66946 10.0912C8.503 10.1597 8.3268 10.1479 8.17966 10.077C7.93124 9.95394 7.79472 9.94857 7.55723 10.077C7.39286 10.1587 7.19147 10.1664 7.00953 10.0707L6.19935 9.64482L6.60304 8.69495C6.69745 8.47281 6.91546 8.32855 7.15685 8.32855H8.59686Z" fill="#49371F"/>
</svg>

<svg xmlns="http://www.w3.org/2000/svg" width="16" height="16" fill="none" viewBox="0 0 16 16"><path fill="#F4AA41" d="m10.848 3.443 1.055.41L13.6 5.844l1.055 2.52-.469 1.23c-.294.888-.825 1.683-1.698 2.343l-.586-.782s-.896 1.807-2.516 2.1c0 0-2.405.453-3.654-.206-.802-.422-1.035-1.034-1.035-1.034l-.8-.801-.372.547-.488-.02-1.27-1.699-.41-1.269.04-1.054.546-1.289 1.133-1.738s.625-1.152 1.914-.917c0 0 1.523-1.133 2.772-.957 1.25.176 1.074-.293 3.085.625"/><path fill="#EA5A47" d="m7.92 11.097.722.566h.586l.02.898-.177.82-.253.45-.664.35-1.074-.136-.371-.41-.234-.996.058-.937.469.059z"/><path fill="#49371F" d="M9.015 7.202s.61.42.928.226a.676.676 0 1 0-.703-1.154c-.318.194-.225.928-.225.928m-.141 4.573a.35.35 0 0 1 .698-.057zm-.356 2.3-.102-.334zm-1.436-.135-.228.266zm2.141-2.193.349-.028v.008l.006.091a6.3 6.3 0 0 1-.032 1.035c-.036.29-.103.614-.232.893-.128.276-.341.556-.693.664l-.205-.67c.085-.025.178-.104.263-.289.085-.183.14-.425.172-.683a5.4 5.4 0 0 0 .023-.993zm-.602 2.663c-.363.111-.72.126-1.02.085-.288-.04-.568-.136-.747-.29l.456-.53c.035.03.164.096.385.126.21.028.464.019.72-.06zm-1.767-.204a1.2 1.2 0 0 1-.258-.347 2.6 2.6 0 0 1-.205-.532 4 4 0 0 1-.067-1.633l.692.106a3.3 3.3 0 0 0 .05 1.344c.045.164.098.293.148.386a1 1 0 0 0 .066.108q.03.039.03.036zM6.617 7.19s-.603.416-.918.224a.668.668 0 0 1 .695-1.142c.315.192.223.919.223.919"/><path stroke="#49371F" stroke-linecap="round" stroke-width=".7" d="M10.35 10.063c.112.844-.475 1.4-1.003 1.603-.65.248-1.192-.097-1.476-.549-.218.435-.704.805-1.476.549-.48-.256-1.115-.76-1.004-1.603"/><path stroke="#49371F" stroke-linecap="round" stroke-width=".7" d="M11.68 6.67c.543 1.208.12 3.051-.028 3.602a.46.46 0 0 0 .03.32l.466.982c.146.308.56.364.78.104.748-.888 2.005-2.67 1.534-3.91-1.654-4.36-3.718-4.251-3.718-4.251-.666-.453-3.07-1.626-5.813.205 0 0-2.023-.403-3.5 3.968-.423 1.25.803 3.015 1.534 3.9.219.264.637.21.784-.1l.462-.976a.46.46 0 0 0 .03-.32c-.147-.55-.57-2.393-.028-3.602"/><path fill="#49371F" d="M5.595 12.337a.35.35 0 1 1-.384.585zm-1.572-1.425.318-.146v.001l.02.04.066.13c.06.109.146.261.259.43.228.344.542.728.91.97l-.385.585c-.483-.317-.859-.792-1.108-1.167a6 6 0 0 1-.39-.68l-.006-.012-.002-.004v-.001z"/><path stroke="#49371F" stroke-linecap="round" stroke-width=".7" d="M11.8 11.03s-.548 1.084-1.422 1.602"/><path fill="#49371F" d="M7.52 10.754a.35.35 0 1 1 .7 0zm0 .363v-.364h.7v.364zm1.077-2.788c.25 0 .475.155.563.39l.38 1.014-.87.358a.6.6 0 0 1-.49-.014c-.249-.123-.385-.128-.623 0a.6.6 0 0 1-.547-.006l-.81-.426.403-.95a.6.6 0 0 1 .554-.366z"/></svg>
